lib/flags/s/834.svg

<svg xmlns="http://www.w3.org/2000/svg" fill="none" viewBox="0 0 16 12"><mask id="834_svg__a" width="16" height="12" x="0" y="0" mask-type="alpha" maskUnits="userSpaceOnUse"><path fill="#fff" d="M0 0H16V12H0z"/></mask><g mask="url(#834_svg__a)"><path fill="#3195F9" fill-rule="evenodd" d="M0 0V12H16V0H0Z" clip-rule="evenodd"/><mask id="834_svg__b" width="16" height="12" x="0" y="0" mask-type="alpha" maskUnits="userSpaceOnUse"><path fill="#fff" fill-rule="evenodd" d="M0 0V12H16V0H0Z" clip-rule="evenodd"/></mask><g mask="url(#834_svg__b)"><path fill="#73BE4A" fill-rule="evenodd" d="M0 0V12L16 0H0Z" clip-rule="evenodd"/><path fill="#272727" stroke="#FFD018" stroke-width="1.25" d="M-0.910841 12.7196L-0.56386 13.2395L-0.0440243 12.8925L18.0864 0.790733L18.6063 0.443753L18.2593 -0.0760835L17.149 -1.73956L16.802 -2.25939L16.2821 -1.91241L-1.84832 10.1893L-2.36816 10.5363L-2.02118 11.0561L-0.910841 12.7196Z"/></g></g></svg>

<svg xmlns="http://www.w3.org/2000/svg" fill="none" viewBox="0 0 16 12"><mask id="834_svg__a" width="16" height="12" x="0" y="0" maskUnits="userSpaceOnUse"><path fill="#fff" d="M0 0h16v12H0z"/></mask><g mask="url(#834_svg__a)"><path fill="#3195F9" fill-rule="evenodd" d="M0 0v12h16V0H0z" clip-rule="evenodd"/><mask id="834_svg__b" width="16" height="12" x="0" y="0" maskUnits="userSpaceOnUse"><path fill="#fff" fill-rule="evenodd" d="M0 0v12h16V0H0z" clip-rule="evenodd"/></mask><g mask="url(#834_svg__b)"><path fill="#73BE4A" fill-rule="evenodd" d="M0 0v12L16 0H0z" clip-rule="evenodd"/><path fill="#272727" stroke="#FFD018" stroke-width="1.25" d="M-.91 12.72l.346.52.52-.348L18.086.791l.52-.347-.347-.52-1.11-1.664-.347-.52-.52.348-18.13 12.101-.52.347.347.52 1.11 1.664z"/></g></g></svg>
